X: 1
T: Aird Ranters
C: Fred Morrison
R: Strathspey
M: 4/4
L: 1/8
K: Amin
|: e<a a>e g<e e>d | e<a a>e g<e d2 |
| e<a a>e g<e e>d | c<A A>G c<A A2 :|
|: c2 B>d c<A A>B |c<A A>G c<A A>B|
| c2 B>d c<A A>B | c<A A>G A2 A2 :|
